symbols/web/playlist_add_check/materialsymbolsoutlined/playlist_add_check_wght700gradN25_40px.svg

<svg xmlns="http://www.w3.org/2000/svg" height="40" width="40"><path d="M4.417 27.542v-4.25h13.708v4.25Zm0-7.834v-4.25h20.25v4.25Zm0-7.791v-4.25h20.25v4.25Zm23.25 21.666-6.75-6.75 2.958-2.958 3.792 3.708 7.416-7.375 3.042 2.959Z"/></svg>

<svg xmlns="http://www.w3.org/2000/svg" height="40" width="40"><path d="M4.417 11.917V7.667H24.667V11.917ZM4.417 19.708V15.458H24.667V19.708ZM4.417 27.542V23.292H18.125V27.542ZM27.667 33.583 20.917 26.833 23.875 23.875 27.667 27.583 35.083 20.208 38.125 23.167Z"/></svg>
